brandFactory_export/1.Light/Target _1Light.svg

<?xml version="1.0" encoding="UTF-8"?>
<svg width="24px" height="24px" viewBox="0 0 24 24" version="1.1" xmlns="http://www.w3.org/2000/svg" xmlns:xlink="http://www.w3.org/1999/xlink">
    <title>1.Light/Target _1Light</title>
    <g id="Symbols" stroke="none" stroke-width="1" fill="none" fill-rule="evenodd">
        <g id="1.Light/Target-_1Light" fill="#5CB615" fill-rule="nonzero">
            <path d="M12.292437,20.0403361 C14.2655462,19.9663866 19.7277311,19.1260504 20.0168067,12.302521 L19.2033613,12.302521 C18.9344538,12.302521 18.712605,12.0840336 18.712605,11.8117647 C18.712605,11.5428571 18.9310924,11.3210084 19.2033613,11.3210084 L20.0235294,11.3210084 C19.7983193,4.41680672 14.3193277,3.50588235 12.292437,3.41512605 L12.292437,4.41008403 C12.292437,4.68235294 12.0739496,4.90084034 11.8016807,4.90084034 C11.5294118,4.90084034 11.3109244,4.68235294 11.3109244,4.41008403 L11.3109244,3.39495798 L11.2571429,3.39495798 C9.44537815,3.41176471 3.61344538,4.05042017 3.41176471,11.3210084 L4.39663866,11.3210084 C4.66554622,11.3210084 4.88739496,11.5394958 4.88739496,11.8117647 C4.88739496,12.0806723 4.66890756,12.302521 4.39663866,12.302521 L3.42184874,12.302521 C3.74453782,19.3512605 9.49243697,20.0235294 11.3109244,20.0504202 L11.3109244,19.2134454 C11.3109244,18.9411765 11.5294118,18.7226891 11.8016807,18.7226891 C12.0739496,18.7226891 12.292437,18.9411765 12.292437,19.2134454 L12.292437,20.0403361 Z M23.1226891,11.3210084 C23.3915966,11.3210084 23.6134454,11.5394958 23.6134454,11.8117647 C23.6134454,12.0806723 23.394958,12.302521 23.1226891,12.302521 L20.994958,12.302521 C20.6823529,20.1848739 14.0134454,20.9579832 12.2890756,21.0218487 L12.2890756,23.1327731 C12.2890756,23.405042 12.0705882,23.6235294 11.7983193,23.6235294 C11.5260504,23.6235294 11.307563,23.405042 11.307563,23.1327731 L11.307563,21.0285714 L11.3042017,21.0285714 C9.85882353,21.0117647 2.79327731,20.4638655 2.44705882,12.302521 L0.480672269,12.302521 C0.211764706,12.2890756 9.2807706e-16,12.0605042 0.0134453782,11.7915966 C0.0235294118,11.5394958 0.228571429,11.3344538 0.480672269,11.3243697 L2.4302521,11.3243697 C2.64537815,2.94117647 9.79159664,2.4302521 11.2504202,2.42016807 L11.3109244,2.42016807 L11.3109244,0.490756303 C11.3109244,0.218487395 11.5294118,0 11.8016807,0 C12.0739496,0 12.292437,0.218487395 12.292437,0.490756303 L12.292437,2.43361345 C14.0773109,2.51428571 20.7630252,3.36470588 21.005042,11.3210084 L23.1226891,11.3210084 Z M10.4941176,7.8789916 C10.2319328,8.13445378 10.1008403,8.55462185 10.1008403,9.13277311 C10.1008403,9.71092437 10.2319328,10.1310924 10.4941176,10.3831933 C10.7462185,10.6285714 11.1596639,10.7495798 11.7142857,10.7495798 C12.2756303,10.7495798 12.6890756,10.6252101 12.9445378,10.3798319 C13.2067227,10.1277311 13.3378151,9.70756303 13.3378151,9.13277311 C13.3378151,8.55462185 13.2067227,8.13445378 12.9445378,7.88235294 C12.6890756,7.63697479 12.2756303,7.5092437 11.7176471,7.5092437 C11.1596639,7.5092437 10.7462185,7.63697479 10.4941176,7.8789916 L10.4941176,7.8789916 Z M11.7142857,11.7310924 C10.8941176,11.7310924 10.2554622,11.5159664 9.81176471,11.0890756 C9.3512605,10.6453782 9.11932773,9.98991597 9.11932773,9.13613445 C9.11932773,8.28235294 9.3512605,7.62352941 9.81176471,7.17647059 C10.2554622,6.74957983 10.8941176,6.53109244 11.7142857,6.53109244 C12.5378151,6.53109244 13.1764706,6.74621849 13.6235294,7.17647059 C14.0840336,7.62352941 14.3193277,8.28235294 14.3193277,9.13277311 C14.3193277,9.98319328 14.0840336,10.6420168 13.6235294,11.0890756 C13.1798319,11.5159664 12.5378151,11.7310924 11.7142857,11.7310924 Z M15.3579832,15.9361345 L15.3579832,15.7546218 C15.3579832,15.3579832 15.2739496,14.8 14.8840336,14.3932773 C14.4470588,13.9428571 13.7815126,13.8487395 13.3008403,13.8487395 L10.1344538,13.8487395 C9.65378151,13.8487395 8.98823529,13.9428571 8.55798319,14.3932773 C8.16806723,14.8 8.08403361,15.3613445 8.08403361,15.7546218 L8.08403361,15.9361345 L15.3579832,15.9361345 Z M13.3008403,12.8672269 C14.2655462,12.8672269 15.0554622,13.1596639 15.589916,13.7142857 C16.0806723,14.2252101 16.3394958,14.9310924 16.3394958,15.7546218 L16.3394958,16.6184874 C16.3394958,16.7831933 16.2084034,16.9142857 16.0436975,16.9142857 L7.39831933,16.9142857 C7.23361345,16.9142857 7.10252101,16.7831933 7.10252101,16.6184874 L7.10252101,15.7512605 C7.10252101,14.9277311 7.36134454,14.2218487 7.8487395,13.7109244 C8.37983193,13.1563025 9.1697479,12.8638655 10.1310924,12.8638655 L13.3008403,12.8672269 Z" id="Target-_1Light"></path>
        </g>
    </g>
</svg>

<svg width="24" height="24" viewBox="0 0 24 24" xmlns="http://www.w3.org/2000/svg"><path d="M12.292 20.04c1.974-.074 7.436-.914 7.725-7.737h-.814a.491.491 0 010-.982h.82c-.225-6.904-5.704-7.815-7.73-7.906v.995a.49.49 0 01-.491.49.49.49 0 01-.491-.49V3.395h-.054c-1.812.017-7.644.655-7.845 7.926h.985a.491.491 0 010 .982h-.975c.323 7.048 6.07 7.72 7.889 7.747v-.837a.49.49 0 01.49-.49.49.49 0 01.491.49v.827zm10.83-8.719a.491.491 0 010 .982h-2.127c-.313 7.882-6.982 8.655-8.706 8.719v2.11a.49.49 0 01-.49.492.49.49 0 01-.491-.491v-2.104h-.004c-1.445-.017-8.51-.565-8.857-8.726H.481a.49.49 0 010-.978h1.95C2.644 2.94 9.79 2.43 11.25 2.42h.06V.49A.49.49 0 0111.8 0a.49.49 0 01.491.49v1.944c1.785.08 8.471.93 8.713 8.887h2.118zM10.495 7.879c-.262.255-.393.676-.393 1.254s.13.998.393 1.25c.252.246.666.367 1.22.367.562 0 .975-.125 1.23-.37.263-.252.394-.672.394-1.247 0-.578-.131-.999-.393-1.25-.256-.246-.67-.374-1.227-.374-.558 0-.972.128-1.224.37zm1.22 3.852c-.82 0-1.459-.215-1.902-.642-.46-.444-.693-1.1-.693-1.953 0-.854.232-1.512.693-1.96.443-.426 1.082-.645 1.902-.645.824 0 1.462.215 1.91.645.46.448.695 1.106.695 1.957 0 .85-.235 1.509-.695 1.956-.444.427-1.086.642-1.91.642zm3.644 4.205v-.181c0-.397-.084-.955-.474-1.362-.437-.45-1.102-.544-1.583-.544h-3.167c-.48 0-1.146.094-1.576.544-.39.407-.474.968-.474 1.362v.181h7.274zm-2.057-3.069c.965 0 1.754.293 2.289.847.49.511.75 1.217.75 2.04v.864a.294.294 0 01-.296.296H7.398a.294.294 0 01-.295-.296v-.867c0-.823.258-1.53.746-2.04.53-.555 1.32-.847 2.282-.847l3.17.003z" fill="#5CB615" fill-rule="nonzero"/></svg>
